Suru++-Ubuntu/apps/symbolic/com.github.bilelmoussaoui.Authenticator-symbolic.svg

<svg width="16" height="16" version="1.1" viewBox="0 0 16 16" xmlns="http://www.w3.org/2000/svg">
 <defs>
  <style type="text/css">.ColorScheme-Text { color:#808080; }</style>
 </defs>
 <path class="ColorScheme-Text" d="m8-3.9e-7c-1.107998 0-2 0.892002-2 2 0 0.097284 0.01172 0.1920363 0.02539 0.2851562-2.9096464 0.8489951-5.02539 3.5237368-5.02539 6.7148438 0 3.8780004 3.122 7.0000004 7 7.0000004s7-3.122 7-7.0000004c0-1.586301-0.52733-3.0415196-1.410156-4.2128906 0.243033-0.182096 0.410156-0.4587104 0.410156-0.7871094 0-0.554-0.446-1-1-1-0.328399 0-0.605013 0.1671232-0.787109 0.4101562-0.664149-0.5005489-1.418203-0.885712-2.238282-1.125 0.01367-0.09312 0.025391-0.1878732 0.025391-0.2851562 0-1.107998-0.892002-2-2-2zm0 0.99999999c0.554004 0 1 0.445996 1 1 0 0.027034-0.01353 0.049691-0.01563 0.076172-0.322527-0.045169-0.648994-0.076172-0.98437-0.076172s-0.661837 0.031003-0.984375 0.076172c-0.00209-0.026481-0.015625-0.049138-0.015625-0.076172 0-0.554004 0.445996-1 1-1zm0 2c0.25958 0 0.513703 0.01932 0.763672 0.052734 0.03476 0.00439 0.06895 0.010651 0.103516 0.015625 0.242093 0.036669 0.480551 0.085481 0.71289 0.1484375 2.550944 0.6912284 4.419922 3.0076205 4.419922 5.7832035 0 3.3240004-2.676 6.0000004-6 6.0000004s-6-2.676-6-6.0000004c0-2.775584 1.8689779-5.0919751 4.419922-5.7832031 0.23234-0.062957 0.470797-0.1117675 0.71289-0.1484375 0.03457-0.00497 0.06876-0.011239 0.103516-0.015625 0.249969-0.033414 0.504092-0.052734 0.763672-0.0527344zm0 1v4c0.554 0 1 0.446 1 1h4c0-2.77-2.23-5-5-5z" style="fill:currentColor"/>
</svg>

<svg xmlns="http://www.w3.org/2000/svg" width="16" height="16" version="1.1" viewBox="0 0 16 16">
 <defs>
  <style id="current-color-scheme" type="text/css">
   .ColorScheme-Text { color:#808080; }
  </style>
 </defs>
 <path style="fill:currentColor;" class="ColorScheme-Text" d="m 8,-3.9e-7 c -1.107998,0 -2,0.892002 -2,1.99999999 0,0.097284 0.01172,0.1920363 0.02539,0.2851562 C 3.1157436,3.1341509 1,5.8088926 1,8.9999996 1,12.878 4.122,16 8,16 11.878,16 15,12.878 15,8.9999996 15,7.4136986 14.47267,5.95848 13.589844,4.787109 13.832877,4.605013 14,4.3283986 14,3.9999996 c 0,-0.554 -0.446,-1 -1,-1 -0.328399,0 -0.605013,0.1671232 -0.787109,0.4101562 -0.664149,-0.5005489 -1.418203,-0.885712 -2.238282,-1.125 C 9.988279,2.1920358 10,2.0972826 10,1.9999996 10,0.89200161 9.107998,-3.9e-7 8,-3.9e-7 Z M 8,0.9999996 c 0.554004,0 1,0.445996 1,1 0,0.027034 -0.01353,0.049691 -0.01563,0.076172 C 8.661843,2.0310026 8.335376,1.9999996 8,1.9999996 c -0.335376,0 -0.661837,0.031003 -0.984375,0.076172 C 7.013535,2.0496906 7,2.0270336 7,1.9999996 c 0,-0.554004 0.445996,-1 1,-1 z m 0,2 c 0.25958,0 0.513703,0.01932 0.763672,0.052734 0.03476,0.00439 0.06895,0.010651 0.103516,0.015625 0.242093,0.036669 0.480551,0.085481 0.71289,0.1484375 C 12.131022,3.9080245 14,6.2244166 14,8.9999996 14,12.324 11.324,15 8,15 4.676,15 2,12.324 2,8.9999996 2,6.2244156 3.8689779,3.9080245 6.419922,3.2167965 6.652262,3.1538395 6.890719,3.105029 7.132812,3.068359 7.167382,3.063389 7.201572,3.05712 7.236328,3.052734 7.486297,3.01932 7.74042,3 8,2.9999996 Z m 0,1 v 4 c 0.554,0 1,0.446 1,1 h 4 c 0,-2.77 -2.23,-5 -5,-5 z"/>
</svg>
